app/src/assets/image/logos/node.svg

<?xml version="1.0" encoding="UTF-8"?>
<svg width="564px" height="160px" viewBox="0 0 564 160" version="1.1" xmlns="http://www.w3.org/2000/svg" xmlns:xlink="http://www.w3.org/1999/xlink">
    <!-- Generator: Sketch 43.2 (39069) - http://www.bohemiancoding.com/sketch -->
    <title>node</title>
    <desc>Created with Sketch.</desc>
    <defs></defs>
    <g id="Page-1" stroke="none" stroke-width="1" fill="none" fill-rule="evenodd">
        <g id="node">
            <path d="M298.53629,0.00024 C298.12682,0.00524 297.71265,0.10297 297.34722,0.31732 C296.61759,0.74569 296.15814,1.5324 296.15814,2.37838 L296.15814,63.02092 C296.15814,63.61678 295.88068,64.14923 295.36543,64.44806 C294.84888,64.74764 294.21854,64.74764 293.70073,64.44806 L283.7918,58.74051 C282.31545,57.8892 280.51219,57.88971 279.03551,58.74051 L239.47906,81.57069 C238.00017,82.42378 237.10091,84.06501 237.10091,85.77195 L237.10091,131.43231 C237.10091,133.13797 238.00144,134.69981 239.47906,135.55442 L279.03551,158.3846 C280.5144,159.23794 282.31291,159.23794 283.7918,158.3846 L323.34825,135.55442 C324.82587,134.69981 325.7264,133.13797 325.7264,131.43231 L325.7264,17.5985 C325.7264,15.86688 324.78148,14.24183 323.26898,13.39711 L299.72536,0.23805 C299.35564,0.03182 298.94576,-0.0042 298.53629,0.00037 L298.53629,0.00024 Z M44.07493,56.99629 C43.32059,57.02669 42.61189,57.15863 41.9346,57.55131 L2.37814,80.38149 C0.9042,81.23356 2.84217094e-14,82.78551 2.84217094e-14,84.50361 L0.0791,145.78031 C0.0791,146.63264 0.51881,147.42408 1.26818,147.84162 C2.00267,148.28123 2.91431,148.28123 3.64632,147.84162 L27.11067,134.36522 C28.59702,133.4822 29.56808,131.94624 29.56808,130.24311 L29.56808,101.62624 C29.56808,99.9193 30.46602,98.35265 31.94623,97.50412 L41.93443,91.71744 C42.67991,91.28645 43.48024,91.08326 44.31257,91.08326 C45.12782,91.08326 45.96586,91.2862 46.69072,91.71744 L56.67892,97.50412 C58.15908,98.35265 59.05706,99.9193 59.05706,101.62624 L59.05706,130.24311 C59.05706,131.94624 60.03782,133.4921 61.51448,134.36522 L84.97883,147.84162 C85.71574,148.28123 86.6261,148.28123 87.35697,147.84162 C88.08533,147.42408 88.54604,146.63264 88.54604,145.78031 L88.62514,84.50361 C88.62514,82.78551 87.73096,81.23356 86.247,80.38149 L46.69063,57.55131 C46.02158,57.15863 45.30974,57.02723 44.5503,56.99629 L44.07467,56.99629 L44.07493,56.99629 Z M399.52812,57.55131 C398.70172,57.55031 397.89195,57.75932 397.14997,58.18548 L357.59352,81.01566 C356.1159,81.869 355.21538,83.43084 355.21538,85.13778 L355.21538,130.79813 C355.21538,132.51496 356.18249,134.07173 357.67279,134.92025 L396.91216,157.2748 C398.36124,158.10227 400.13058,158.16416 401.58917,157.3534 L425.37061,144.11494 C426.12527,143.69638 426.63578,142.91458 426.63895,142.05388 C426.64395,141.19293 426.19503,140.42127 425.44988,139.99282 L385.65561,117.16264 C384.91046,116.73775 384.38727,115.8768 384.38727,115.02219 L384.38727,100.75333 C384.38727,99.90024 384.9168,99.11843 385.65561,98.69252 L398.02196,91.55784 C398.7576,91.13218 399.66129,91.13218 400.4001,91.55784 L412.76645,98.69252 C413.50526,99.11843 413.95552,99.90024 413.95552,100.75333 L413.95552,112.01013 C413.95552,112.86448 414.40578,113.64502 415.14459,114.07093 C415.88657,114.49811 416.78393,114.49988 417.52274,114.07093 L441.2249,100.27795 C442.69618,99.42334 443.60304,97.85744 443.60304,96.15584 L443.60304,85.13698 C443.60304,83.43511 442.69935,81.86947 441.2249,81.01486 L401.90626,58.18468 C401.16585,57.75548 400.35452,57.55153 399.52812,57.55051 L399.52812,57.55131 Z M281.25511,91.63804 C281.46134,91.63804 281.7041,91.68874 281.88928,91.79531 L295.4447,99.64331 C295.81252,99.85639 296.07887,100.24882 296.07887,100.67371 L296.07887,116.36946 C296.07887,116.79562 295.81506,117.1883 295.4447,117.40012 L281.88928,125.24786 C281.52019,125.45841 281.0693,125.45841 280.70021,125.24786 L267.14479,117.40012 C266.7757,117.18704 266.51062,116.79562 266.51062,116.36946 L266.51062,100.67371 C266.51062,100.24882 266.77697,99.85741 267.14479,99.64331 L280.70021,91.79658 C280.88539,91.69004 281.04885,91.63931 281.25511,91.63931 L281.25511,91.63804 Z" id="path22" fill="#404137"></path>
            <path d="M518.03894,56.44151 C516.66753,56.44151 515.3342,56.72511 514.15464,57.39277 L476.81778,78.9546 C474.40159,80.34572 472.93348,82.97525 472.93348,85.77195 L472.93348,128.81647 C472.93348,131.61165 474.40159,134.23813 476.81778,135.63357 L486.56817,141.26197 C491.30543,143.59673 493.05258,143.56071 495.20876,143.56071 C502.2227,143.56071 506.22749,139.30491 506.22749,131.90793 L506.22749,89.41844 C506.22749,88.81775 505.70747,88.38778 505.11769,88.38778 L500.44068,88.38778 C499.84138,88.38778 499.33087,88.81775 499.33087,89.41844 L499.33087,131.90793 C499.33087,135.1866 495.91586,138.48379 490.3732,135.71296 L480.22646,129.76773 C479.86815,129.57241 479.59228,129.22767 479.59228,128.81647 L479.59228,85.77195 C479.59228,85.36329 479.86498,84.94829 480.22646,84.74155 L517.48404,63.25886 C517.83283,63.05846 518.24821,63.05846 518.59384,63.25886 L555.85142,84.74155 C556.20656,84.95463 556.48559,85.35086 556.48559,85.77195 L556.48559,128.81647 C556.48559,129.22767 556.27936,129.64876 555.93069,129.84688 L518.59384,151.32957 C518.27358,151.51982 517.83283,151.51982 517.48404,151.32957 L507.89219,145.62202 C507.60681,145.4546 507.2168,145.46728 506.94093,145.62202 C504.29327,147.12298 503.79544,147.2975 501.31266,148.15871 C500.70069,148.37179 499.77162,148.70334 501.62975,149.74414 L514.15464,157.11626 C515.34688,157.80623 516.67547,158.14666 518.03894,158.14666 C519.42143,158.14666 520.731,157.80623 521.92324,157.11626 L559.26009,135.63357 C561.67629,134.22824 563.14439,131.61165 563.14439,128.81647 L563.14439,85.77195 C563.14439,82.97525 561.67629,80.35156 559.26009,78.9546 L521.92324,57.39277 C520.75319,56.72511 519.41035,56.44151 518.03894,56.44151 L518.03894,56.44151 Z M162.90283,57.31337 C162.07856,57.31337 161.26287,57.52138 160.52469,57.94754 L120.96824,80.69858 C119.48935,81.5509 118.59009,83.19442 118.59009,84.89984 L118.59009,130.56019 C118.59009,132.26764 119.49031,133.82821 120.96824,134.68231 L160.52469,157.51249 C162.00358,158.36659 163.80209,158.36659 165.28098,157.51249 L204.83743,134.68231 C206.31378,133.82821 207.21558,132.26764 207.21558,130.56019 L207.21558,84.89984 C207.21558,83.19189 206.31632,81.5509 204.83743,80.69858 L165.28098,57.94754 C164.5428,57.52138 163.7271,57.31337 162.90283,57.31337 Z M528.02714,87.19934 C517.39525,87.19934 511.06305,91.72403 511.06305,99.2486 C511.06305,107.41141 517.34769,109.65409 527.55151,110.66369 C539.75932,111.85873 540.71057,113.65115 540.71057,116.05415 C540.71057,120.22218 537.38751,121.99938 529.5333,121.99938 C519.66559,121.99938 517.49672,119.53601 516.77059,114.62727 C516.68509,114.1009 516.27911,113.67601 515.74007,113.67601 L510.90451,113.67601 C510.30839,113.67601 509.79471,114.18867 509.79471,114.78581 C509.79471,121.06918 513.21289,128.4999 529.5333,128.4999 C541.34792,128.4999 548.16209,123.86233 548.16209,115.73707 C548.16209,107.68207 542.65748,105.52005 531.198,104.00489 C519.61802,102.47273 518.51457,101.72289 518.51457,99.01092 C518.51457,96.77229 519.44997,93.77875 528.02714,93.77875 C535.68793,93.77875 538.51951,95.43089 539.68004,100.59635 C539.78151,101.08187 540.20958,101.4682 540.71057,101.4682 L545.54613,101.4682 C545.84419,101.4682 546.13274,101.28556 546.33885,101.07172 C546.54178,100.84342 546.68447,100.5862 546.65593,100.27926 C545.90761,91.38335 539.97493,87.19934 528.02714,87.19934 L528.02714,87.19934 Z M399.44885,98.05966 C399.29081,98.05966 399.11591,98.05966 398.97322,98.13826 L391.36316,102.57746 C391.07778,102.73981 390.88753,103.04192 390.88753,103.37017 L390.88753,112.09003 C390.88753,112.41828 391.07778,112.71913 391.36316,112.88275 L398.97322,117.24255 C399.25859,117.40743 399.563,117.40743 399.8452,117.24255 L407.45526,112.88275 C407.73747,112.7204 407.93089,112.41828 407.93089,112.09003 L407.93089,103.37017 C407.93089,103.04192 407.7376,102.74082 407.45526,102.57746 L399.8452,98.13826 C399.70416,98.05456 399.60701,98.05966 399.44885,98.05966 Z" id="path28" fill="#83CD29"></path>
        </g>
    </g>
</svg>

<svg width="564" height="160" viewBox="0 0 564 160" xmlns="http://www.w3.org/2000/svg"><title>node</title><g fill="none" fill-rule="evenodd"><path d="M298.536 0c-.41.005-.823.103-1.189.317a2.403 2.403 0 0 0-1.189 2.061v60.643c0 .596-.277 1.128-.793 1.427-.516.3-1.146.3-1.664 0l-9.91-5.707a4.75 4.75 0 0 0-4.755 0l-39.557 22.83c-1.479.853-2.378 2.494-2.378 4.201v45.66c0 1.706.9 3.268 2.378 4.122l39.557 22.83a4.738 4.738 0 0 0 4.756 0l39.556-22.83a4.747 4.747 0 0 0 2.378-4.122V17.6a4.833 4.833 0 0 0-2.457-4.202L299.725.238c-.37-.206-.78-.242-1.189-.238zM44.075 56.996c-.754.03-1.463.163-2.14.555L2.378 80.381A4.737 4.737 0 0 0 0 84.504l.08 61.276c0 .853.439 1.644 1.188 2.062.735.44 1.646.44 2.378 0l23.465-13.477c1.486-.883 2.457-2.419 2.457-4.122v-28.617c0-1.707.898-3.273 2.378-4.122l9.988-5.787a4.684 4.684 0 0 1 2.379-.634c.815 0 1.653.203 2.378.634l9.988 5.787a4.733 4.733 0 0 1 2.378 4.122v28.617c0 1.703.98 3.25 2.457 4.122l23.465 13.477c.737.44 1.647.44 2.378 0a2.385 2.385 0 0 0 1.189-2.062l.08-61.276a4.72 4.72 0 0 0-2.379-4.123l-39.556-22.83c-.67-.392-1.381-.524-2.14-.555h-.476zm355.453.555a4.729 4.729 0 0 0-2.378.634l-39.556 22.83a4.744 4.744 0 0 0-2.379 4.123v45.66c0 1.717.967 3.274 2.458 4.122l39.24 22.355c1.448.827 3.218.89 4.676.078l23.782-13.238c.754-.419 1.265-1.2 1.268-2.061a2.342 2.342 0 0 0-1.19-2.061l-39.793-22.83c-.746-.425-1.269-1.286-1.269-2.14v-14.27c0-.853.53-1.635 1.269-2.06l12.366-7.135a2.374 2.374 0 0 1 2.378 0l12.366 7.135a2.371 2.371 0 0 1 1.19 2.06v11.257c0 .854.45 1.635 1.189 2.06.742.428 1.639.43 2.378 0l23.702-13.792a4.765 4.765 0 0 0 2.378-4.122V85.137a4.758 4.758 0 0 0-2.378-4.122l-39.319-22.83a4.714 4.714 0 0 0-2.378-.634zM281.255 91.638c.206 0 .45.05.634.157l13.556 7.848c.368.213.634.606.634 1.03v15.696c0 .427-.264.82-.634 1.031l-13.556 7.848a1.2 1.2 0 0 1-1.189 0l-13.555-7.848c-.37-.213-.634-.604-.634-1.03v-15.696c0-.425.266-.817.634-1.03l13.555-7.847c.185-.107.349-.158.555-.158v-.001z" fill="#404137"/><path d="M518.039 56.442c-1.371 0-2.705.283-3.884.95l-37.337 21.563c-2.416 1.39-3.885 4.02-3.885 6.817v43.044c0 2.796 1.469 5.422 3.885 6.818l9.75 5.628c4.737 2.335 6.485 2.299 8.64 2.299 7.015 0 11.02-4.256 11.02-11.653v-42.49c0-.6-.52-1.03-1.11-1.03h-4.677c-.6 0-1.11.43-1.11 1.03v42.49c0 3.279-3.415 6.576-8.958 3.805l-10.147-5.945c-.358-.196-.634-.54-.634-.952V85.772c0-.409.273-.824.634-1.03l37.258-21.483a1.1 1.1 0 0 1 1.11 0l37.257 21.483c.356.213.635.609.635 1.03v43.044c0 .412-.207.833-.555 1.03l-37.337 21.484c-.32.19-.761.19-1.11 0l-9.592-5.708a.997.997 0 0 0-.951 0c-2.648 1.501-3.146 1.675-5.628 2.537-.612.213-1.541.544.317 1.585l12.525 7.372a7.707 7.707 0 0 0 3.884 1.03c1.382 0 2.692-.34 3.884-1.03l37.337-21.482c2.416-1.406 3.884-4.022 3.884-6.818V85.772c0-2.797-1.468-5.42-3.884-6.817l-37.337-21.562c-1.17-.668-2.513-.951-3.884-.951zm-355.136.871c-.824 0-1.64.208-2.378.635l-39.557 22.75c-1.479.853-2.378 2.496-2.378 4.202v45.66c0 1.708.9 3.268 2.378 4.122l39.557 22.83a4.735 4.735 0 0 0 4.756 0l39.556-22.83a4.747 4.747 0 0 0 2.379-4.122V84.9c0-1.708-.9-3.35-2.379-4.201l-39.556-22.751a4.734 4.734 0 0 0-2.378-.635zM528.027 87.2c-10.632 0-16.964 4.525-16.964 12.05 0 8.162 6.285 10.405 16.489 11.415 12.207 1.195 13.159 2.987 13.159 5.39 0 4.168-3.323 5.945-11.178 5.945-9.867 0-12.036-2.463-12.762-7.372-.086-.526-.492-.951-1.03-.951h-4.836c-.597 0-1.11.513-1.11 1.11 0 6.283 3.418 13.714 19.738 13.714 11.815 0 18.63-4.638 18.63-12.763 0-8.055-5.506-10.217-16.965-11.732-11.58-1.532-12.683-2.282-12.683-4.994 0-2.239.935-5.232 9.512-5.232 7.66 0 10.493 1.652 11.653 6.817.102.486.53.872 1.03.872h4.836c.298 0 .587-.182.793-.396.203-.229.345-.486.317-.793-.748-8.896-6.681-13.08-18.629-13.08zM399.45 98.06c-.158 0-.333 0-.476.08l-7.61 4.438a.925.925 0 0 0-.475.793v8.72c0 .328.19.63.475.793l7.61 4.36a.83.83 0 0 0 .872 0l7.61-4.36a.932.932 0 0 0 .476-.793v-8.72a.933.933 0 0 0-.476-.793l-7.61-4.439c-.14-.083-.238-.078-.396-.078z" fill="#83CD29"/></g></svg>
